svgs/sharp-regular/user-doctor-hair-long.svg

<svg xmlns="http://www.w3.org/2000/svg" viewBox="0 0 448 512"><!--! Font Awesome Pro 6.6.0 by @fontawesome - https://fontawesome.com License - https://fontawesome.com/license (Commercial License) Copyright 2024 Fonticons, Inc. --><path d="M304 144c0 44.2-35.8 80-80 80s-80-35.8-80-80l0-16c0-5.5 .6-10.8 1.6-16l62.4 0 32-32 16 16 41.3 0c4.3 9.8 6.7 20.6 6.7 32l0 16zM224 0C153.3 0 96 57.3 96 128l0 16 0 48L48 240l0 32 176 0 176 0 0-32-48-48 0-48 0-16C352 57.3 294.7 0 224 0zM99.5 352l36.5 0 0 50.3c-23.1 6.9-40 28.3-40 53.7c0 30.9 25.1 56 56 56s56-25.1 56-56c0-25.4-16.9-46.8-40-53.7l0-50.3 112 0 0 50c-27.6 7.1-48 32.2-48 62l0 32 0 16 16 0 24 0 16 0 0-32-16 0-8 0 0-16c0-17.7 14.3-32 32-32s32 14.3 32 32l0 16-8 0-16 0 0 32 16 0 24 0 16 0 0-16 0-32c0-29.8-20.4-54.9-48-62l0-50 36.5 0 49.2 160 50.2 0L384 304 64 304 0 512l50.2 0L99.5 352zM128 456a24 24 0 1 1 48 0 24 24 0 1 1 -48 0z"/></svg>

<svg xmlns="http://www.w3.org/2000/svg" viewBox="0 0 448 512"><!--! Font Awesome Pro 6.4.2 by @fontawesome - https://fontawesome.com License - https://fontawesome.com/license (Commercial License) Copyright 2023 Fonticons, Inc. --><path d="M304 144c0 44.2-35.8 80-80 80s-80-35.8-80-80V128c0-5.5 .6-10.8 1.6-16H208l32-32 16 16h41.3c4.3 9.8 6.7 20.6 6.7 32v16zM224 0C153.3 0 96 57.3 96 128v16 48L48 240v32H224 400V240l-48-48V144 128C352 57.3 294.7 0 224 0zM99.5 352H136v50.3c-23.1 6.9-40 28.3-40 53.7c0 30.9 25.1 56 56 56s56-25.1 56-56c0-25.4-16.9-46.8-40-53.7V352H280v50c-27.6 7.1-48 32.2-48 62v32 16h16 24 16V480H272h-8V464c0-17.7 14.3-32 32-32s32 14.3 32 32v16h-8H304v32h16 24 16V496 464c0-29.8-20.4-54.9-48-62V352h36.5l49.2 160H448L384 304H64L0 512H50.2L99.5 352zM128 456a24 24 0 1 1 48 0 24 24 0 1 1 -48 0z"/></svg>
